24x24/apps/king-phisher-icon.svg

<svg height="24" width="24" xmlns="http://www.w3.org/2000/svg"><g transform="translate(1 1)"><circle cx="11" cy="11.5" opacity=".2" r="10"/><circle cx="11" cy="11" fill="#f4f4f7" r="10"/><path d="m8.338 9.703a3.5 3.5 0 0 0 -2.338 3.297 3.5 3.5 0 0 0 3.5 3.5 3.5 3.5 0 0 0 3.5-3.5 3.5 3.5 0 0 0 -.043-.525z" opacity=".1"/><path d="m11 1a10 10 0 0 0 -10 10 10 10 0 0 0 .01.293 10 10 0 0 1 9.99-9.793 10 10 0 0 1 9.99 9.707 10 10 0 0 0 .01-.207 10 10 0 0 0 -10-10z" fill="#f4f4f7" opacity=".2"/><path d="m8.338 9.203a3.5 3.5 0 0 0 -2.338 3.297 3.5 3.5 0 0 0 3.5 3.5 3.5 3.5 0 0 0 3.5-3.5 3.5 3.5 0 0 0 -.043-.525z" fill="#17191e"/><circle cx="9.5" cy="12.5" fill="#ffb73c" r="2.5"/><circle cx="9.5" cy="12.5" fill="#17191e" r="1.5"/><path d="m4 6-3-3c14 2 20 12 20 12s-8-8-17-9z" fill="#4f4f4f"/><path d="m4 6.5-3-3c14 2 20 12 20 12s-8-8-17-9z" opacity=".1"/><circle cx="8" cy="11" fill="#f4f4f7" r="1"/><path d="m7 10.5-2-3c9 3 11 7 11 7s-6-4-9-4z" opacity=".1"/><path d="m7 10-2-3c9 3 11 7 11 7s-6-4-9-4z" fill="#4f4f4f"/><path d="m9 13.5a.5.5 0 0 1 -.5.5.5.5 0 0 1 -.5-.5.5.5 0 0 1 .5-.5.5.5 0 0 1 .5.5z" fill="#f4f4f7"/></g></svg>

<svg width="24" height="24" xmlns="http://www.w3.org/2000/svg"><g transform="translate(1 1)"><circle cx="11" cy="11.5" r="10" style="opacity:.2"/><circle cx="11" cy="11" r="10" style="fill:#f4f4f7"/><path d="M8.338 9.703A3.5 3.5 0 0 0 6 13a3.5 3.5 0 0 0 3.5 3.5A3.5 3.5 0 0 0 13 13a3.5 3.5 0 0 0-.043-.525z" style="opacity:.1"/><path d="M11 1A10 10 0 0 0 1 11a10 10 0 0 0 .01.293A10 10 0 0 1 11 1.5a10 10 0 0 1 9.99 9.707A10 10 0 0 0 21 11 10 10 0 0 0 11 1z" style="fill:#f4f4f7;opacity:.2"/><path d="M8.338 9.203A3.5 3.5 0 0 0 6 12.5 3.5 3.5 0 0 0 9.5 16a3.5 3.5 0 0 0 3.5-3.5 3.5 3.5 0 0 0-.043-.525z" style="fill:#17191e"/><circle cx="9.5" cy="12.5" r="2.5" style="fill:#ffb73c"/><circle cx="9.5" cy="12.5" r="1.5" style="fill:#17191e"/><path d="M4 6 1 3c14 2 20 12 20 12S13 7 4 6z" style="fill:#4f4f4f"/><path d="m4 6.5-3-3c14 2 20 12 20 12s-8-8-17-9z" style="opacity:.1"/><circle cx="8" cy="11" r="1" style="fill:#f4f4f7"/><path d="m7 10.5-2-3c9 3 11 7 11 7s-6-4-9-4z" style="opacity:.1"/><path d="M7 10 5 7c9 3 11 7 11 7s-6-4-9-4z" style="fill:#4f4f4f"/><path d="M9 13.5a.5.5 0 0 1-.5.5.5.5 0 0 1-.5-.5.5.5 0 0 1 .5-.5.5.5 0 0 1 .5.5z" style="fill:#f4f4f7"/></g></svg>
